packages/stacks-site/static/images/heros/logo.svg

<svg fill="none" height="540" viewBox="0 0 1030 540" width="1030" xmlns="http://www.w3.org/2000/svg" xmlns:xlink="http://www.w3.org/1999/xlink"><clipPath id="a"><path d="m0 0h1030v540h-1030z"/></clipPath><clipPath id="b"><path d="m518.742 145.616h3058.34v348.451h-3058.34z"/></clipPath><clipPath id="c"><path d="m518.742 148.598h3058.34v343.543h-3058.34z"/></clipPath><g clip-path="url(#a)"><path d="m0 0h1030v540h-1030z" fill="#000"/><g clip-path="url(#b)"><g clip-path="url(#c)"><path d="m651.443 437.982c36.286 0 62.722-13.927 62.722-39.719 0-63.963-191.794-3.611-191.794-132.052 0-50.036 47.689-92.334 124.407-92.334 67.387 0 122.334 43.846 122.334 106.777h-60.649c-2.592-34.045-22.289-54.162-63.759-54.162-40.95 0-62.203 16.506-62.203 39.719 0 69.637 191.276 4.642 191.276 132.052 0 58.805-46.653 91.818-125.444 91.818-73.089 0-127.517-45.909-129.591-107.293h61.167c3.11 34.561 32.657 55.194 71.534 55.194zm137.885-204.268h34.212v-52.615h56.501v52.615h43.025v47.972h-43.025v155.265h50.282v47.972h-106.783v-203.237h-33.694zm208.9 125.862c0 47.456 22.812 81.501 64.282 81.501 45.61 0 67.9-35.076 67.9-81.501s-22.29-82.533-67.9-82.533c-41.47 0-64.282 34.561-64.282 82.533zm55.462-133.084c35.77 0 60.65 14.443 76.72 39.719v-32.497h56.5v251.209h-56.5v-31.982c-15.03 24.244-39.39 39.203-76.72 39.203-70.494 0-113.518-54.678-113.518-132.568s43.024-133.084 113.518-133.084zm285.62 265.652c-77.75 0-128.55-54.678-128.55-132.568s50.8-133.084 128.55-133.084c68.94 0 117.15 50.551 117.67 105.745h-59.09c-1.56-27.339-18.15-54.678-58.58-54.678-49.24 0-70.5 35.592-70.5 82.017s21.26 80.985 70.5 80.985c41.99 0 58.58-29.402 60.13-60.868h58.58c-1.04 64.995-47.17 112.451-118.71 112.451zm140.48-311.045h57.02v153.201l81.38-100.586h66.87l-81.9 101.102 90.19 150.107h-63.24l-61.16-108.84-32.14 40.234v68.606h-57.02zm527.17 151.654c0-51.583-28.51-106.261-94.34-106.261-66.35 0-95.9 54.678-95.9 106.261s29.55 106.777 95.9 106.777c65.83 0 94.34-55.194 94.34-106.777zm-250.37 0c0-86.144 55.47-158.876 156.03-158.876 100.04 0 149.81 72.732 155.51 158.876-5.7 87.175-55.47 159.391-155.51 159.391-100.56 0-156.03-72.216-156.03-159.391zm312.06-99.039h60.65l56.5 200.657 57.02-200.657h60.65l-78.79 251.209h-77.24zm289.76 98.007h127.52c-3.11-29.918-21.77-54.678-59.09-54.678-39.4 0-60.65 22.697-68.43 54.678zm68.43 160.423c-78.28 0-129.08-54.678-129.08-132.568s50.8-133.084 129.08-133.084c68.42 0 127 55.194 114.56 151.654h-184.02c4.66 36.624 26.43 62.931 69.46 62.931 29.54 0 48.2-15.475 55.98-36.108h59.09c-10.88 51.583-53.91 87.175-115.07 87.175zm138.92-258.43v251.209h56.5v-203.237h81.38v-47.972zm266.44-85.112c-54.43 0-80.35 25.275-80.35 70.152v14.96h-25.92v47.972h25.92v203.237h56.5v-203.237h60.13v-47.972h-60.13v-14.96c0-14.443 8.3-22.18 24.37-22.18h40.95v-47.972zm63.76 0v336.321h57.02v-336.321zm139.44 210.974c0 47.456 23.84 81.501 71.01 81.501s71.02-34.045 71.02-81.501c0-46.425-23.85-82.533-71.02-82.533s-71.01 36.108-71.01 82.533zm71.01-133.084c77.76 0 130.63 55.194 128.56 133.084 2.07 77.89-50.8 132.568-128.56 132.568-78.27 0-129.07-54.678-129.07-132.568s50.8-133.084 129.07-133.084zm130.63 7.222h60.65l36.28 188.277 41.99-188.277h61.69l41.98 188.793 37.32-188.793h60.14l-60.65 251.209h-75.17l-34.21-153.718-34.21 153.718h-75.16z" fill="#eee"/></g></g><path d="m384.287 283.684.641.333-.169.167-.472-.467c-14.41 18.424-26.491 38.714-35.805 60.404-.135.333-.27.633-.405.966-8.976 21.156-15.354 43.645-18.695 67.134-.034.133-.034.299-.034.433-1.788 12.46-2.7 25.187-2.7 38.114 0 10.995.675 21.856 1.958 32.517h-267.606v-71.064h232.375c.439-2.932.945-5.798 1.485-8.696l-223.8712-59.238 18.6278-68.666 226.6384 59.971c1.046-2.299 2.126-4.565 3.206-6.83l-203.388-115.943 35.974-61.536 206.424 117.641c1.62-1.932 3.273-3.864 4.994-5.763l-169.135-166.9513 50.923-50.2753 171.835 169.6826 18.155 17.925c-19.1 14.459-36.243 31.318-50.956 50.142z" fill="#eee"/></g></svg>

<svg width="1030" height="540" viewBox="0 0 1030 540" fill="none" xmlns="http://www.w3.org/2000/svg">
<g clip-path="url(#clip0_1_586)">
<rect width="1030" height="540" fill="black"/>
<g clip-path="url(#clip1_1_586)">
<g clip-path="url(#clip2_1_586)">
<path d="M651.443 437.982C687.729 437.982 714.165 424.055 714.165 398.263C714.165 334.3 522.371 394.652 522.371 266.211C522.371 216.175 570.06 173.877 646.778 173.877C714.165 173.877 769.112 217.723 769.112 280.654H708.463C705.871 246.609 686.174 226.492 644.705 226.492C603.754 226.492 582.501 242.998 582.501 266.211C582.501 335.848 773.777 270.853 773.777 398.263C773.777 457.068 727.124 490.081 648.333 490.081C575.244 490.081 520.816 444.172 518.742 382.788H579.909C583.019 417.349 612.566 437.982 651.443 437.982ZM789.328 233.714H823.54V181.099H880.041V233.714H923.066V281.686H880.041V436.951H905.441H930.323V484.923H904.923L823.54 484.407V281.686H789.846L789.328 233.714ZM998.228 359.576C998.228 407.032 1021.04 441.077 1062.51 441.077C1108.12 441.077 1130.41 406.001 1130.41 359.576C1130.41 313.151 1108.12 277.043 1062.51 277.043C1021.04 277.043 998.228 311.604 998.228 359.576ZM1053.69 226.492C1089.46 226.492 1114.34 240.935 1130.41 266.211V233.714H1186.91V484.923H1130.41V452.941C1115.38 477.185 1091.02 492.144 1053.69 492.144C983.196 492.144 940.172 437.466 940.172 359.576C940.172 281.686 983.196 226.492 1053.69 226.492ZM1339.31 492.144C1261.56 492.144 1210.76 437.466 1210.76 359.576C1210.76 281.686 1261.56 226.492 1339.31 226.492C1408.25 226.492 1456.46 277.043 1456.98 332.237H1397.89C1396.33 304.898 1379.74 277.559 1339.31 277.559C1290.07 277.559 1268.81 313.151 1268.81 359.576C1268.81 406.001 1290.07 440.561 1339.31 440.561C1381.3 440.561 1397.89 411.159 1399.44 379.693H1458.02C1456.98 444.688 1410.85 492.144 1339.31 492.144ZM1479.79 181.099H1536.81V334.3L1618.19 233.714H1685.06L1603.16 334.816L1693.35 484.923H1630.11L1568.95 376.083L1536.81 416.317V484.923H1479.79V181.099ZM2006.96 332.753C2006.96 281.17 1978.45 226.492 1912.62 226.492C1846.27 226.492 1816.72 281.17 1816.72 332.753C1816.72 384.336 1846.27 439.53 1912.62 439.53C1978.45 439.53 2006.96 384.336 2006.96 332.753ZM1756.59 332.753C1756.59 246.609 1812.06 173.877 1912.62 173.877C2012.66 173.877 2062.43 246.609 2068.13 332.753C2062.43 419.928 2012.66 492.144 1912.62 492.144C1812.06 492.144 1756.59 419.928 1756.59 332.753ZM2068.65 233.714H2129.3L2185.8 434.371L2242.82 233.714H2303.47L2224.68 484.923H2147.44L2068.65 233.714ZM2358.41 331.721H2485.93C2482.82 301.803 2464.16 277.043 2426.84 277.043C2387.44 277.043 2366.19 299.74 2358.41 331.721ZM2426.84 492.144C2348.56 492.144 2297.76 437.466 2297.76 359.576C2297.76 281.686 2348.56 226.492 2426.84 226.492C2495.26 226.492 2553.84 281.686 2541.4 378.146H2357.38C2362.04 414.77 2383.81 441.077 2426.84 441.077C2456.38 441.077 2475.04 425.602 2482.82 404.969H2541.91C2531.03 456.552 2488 492.144 2426.84 492.144ZM2565.76 233.714V484.923H2622.26V281.686H2703.64V233.714H2565.76ZM2832.2 148.602C2777.77 148.602 2751.85 173.877 2751.85 218.754V233.714H2725.93V281.686H2751.85V484.923H2808.35V281.686H2868.48V233.714H2808.35V218.754C2808.35 204.311 2816.65 196.574 2832.72 196.574H2873.67V148.602H2832.2ZM2895.96 148.602V484.923H2952.98V148.602H2895.96ZM3035.4 359.576C3035.4 407.032 3059.24 441.077 3106.41 441.077C3153.58 441.077 3177.43 407.032 3177.43 359.576C3177.43 313.151 3153.58 277.043 3106.41 277.043C3059.24 277.043 3035.4 313.151 3035.4 359.576ZM3106.41 226.492C3184.17 226.492 3237.04 281.686 3234.97 359.576C3237.04 437.466 3184.17 492.144 3106.41 492.144C3028.14 492.144 2977.34 437.466 2977.34 359.576C2977.34 281.686 3028.14 226.492 3106.41 226.492ZM3237.04 233.714H3297.69L3333.97 421.991L3375.96 233.714H3437.65L3479.63 422.507L3516.95 233.714H3577.08L3516.44 484.923H3441.27L3407.06 331.205L3372.85 484.923H3297.69L3237.04 233.714Z" fill="#EEEEEE"/>
</g>
</g>
<path d="M384.287 283.684L384.928 284.017L384.759 284.184L384.287 283.717C369.877 302.141 357.796 322.431 348.482 344.121C348.347 344.454 348.212 344.754 348.077 345.087C339.101 366.243 332.723 388.732 329.382 412.221C329.348 412.354 329.348 412.52 329.348 412.654C327.56 425.114 326.648 437.841 326.648 450.768C326.648 461.763 327.323 472.624 328.606 483.285L61 483.285L61 412.221L293.375 412.221C293.814 409.289 294.32 406.423 294.86 403.525L70.9888 344.287L89.6166 275.621L316.255 335.592C317.301 333.293 318.381 331.027 319.461 328.762L116.073 212.819L152.047 151.282L358.471 268.924C360.091 266.992 361.744 265.06 363.465 263.161L194.33 96.2097L245.253 45.9344L417.088 215.617L435.243 233.542C416.143 248.001 399 264.86 384.287 283.684Z" fill="#EEEEEE"/>
</g>
<defs>
<clipPath id="clip0_1_586">
<rect width="1030" height="540" fill="white"/>
</clipPath>
<clipPath id="clip1_1_586">
<rect width="3058.34" height="348.451" fill="white" transform="translate(518.742 145.616)"/>
</clipPath>
<clipPath id="clip2_1_586">
<rect width="3058.34" height="343.543" fill="white" transform="translate(518.742 148.598)"/>
</clipPath>
</defs>
</svg>
